X:7
T:Ashokan Farewell
C:Jay Unger
M:3/4
L:1/8
Q:1/4=120
K:D
Ac|"D"d3c BA|F4EF|"G"G3F ED|"Em"B,2D3B,|
"D"A,2D2F2|A2d2f2|f3gf2|"A"e4Ac|
"D"d3c BA|F4EF|"G"G3F ED|"Em"B,2D3B,|
"D"A,2D2F2|A2d2f2|"A"A2c2e2|"D"d4FG||
"D"A3FD2|d4A2|"G"B3cd2|"D"AF-F2E2|
F3ED2|"G"B,3A,A,2|"A"A,6|A4FE|
"D"D2F2A2|"C"=c4d2|"G"B3cd2|"D"AF-F2D2|
A,2D2F2|A2d2F2|"A"E3DC2|"D"D4||
